X: 1
T: Apsley Cottage
C: Colin Farrell
M: 6/8
R: Jig
L: 1/8
S: Graham Mackenzie
K: F#m
|:c3 cBc|ecA Bec|F3 FEF|Aec B2A|
c3 cBc|ecA Bec|F2E F2a|fec B2A:|
F3 FEF|ABc c2B|ABA ABc|B2A BAE|
F3 FEF|ABc c2B|ABA Aag|fec B2A|
F3 FEF|ABc c2B|ABA ABc|B2A Bce|
a2 g- gag|fec fec|B3 BAB|cag f2e|] 
